X:388
T:Thompson's
T:William Thompson's
R:jig
S:Kevin Ryan and Marco Pollier
D:Eitre: The Coming of Spring
Z:id:hn-jig-388
M:6/8
L:1/8
K:G
~B3 GBd | gba ~g3 | e/f/ge dBG | AGA B2A |
GED GBd | gba ~g3 | e/f/ge dBd |1 eaf g3 :|2 eaf g2d ||
|: gba ged | e/f/ge dBd | gba ged | eag aba |
gba ged | ege dBA | ~B3 dBA |1 GBA GBd :|2 GBA G2A ||
P:variations
|: BAB GBd | gba g2d | ege dBG | AGA B2A |
GED GBd | gba ged | ege dBd | eaf g3 :|
|: gba ged | ege dBd | ~g3 ged | eag ~a3 |
gba ged | e/f/ge dBA | BAB dBA | GBA G3 :|

